icons/filter-off-fill.svg

<svg xmlns="http://www.w3.org/2000/svg" width="24" height="24" fill="none"><g clip-path="url(#a)"><g><path fill="#121212" d="M6.929 0.514893L21.07 14.6569L19.656 16.0709L15.833 12.2489L14 14.9999V21.9999H10V14.9999L4 5.99989H3V3.99989H7.585L5.515 1.92889L6.929 0.514893ZM21 3.99989V5.99989H20L18.085 8.87189L13.213 3.99989H21Z"/></g></g><defs><clipPath id="a"><rect width="24" height="24" fill="white"/></clipPath></defs></svg>

<svg width="24" height="24" fill="none" xmlns="http://www.w3.org/2000/svg"><g clip-path="url(#a)"><path d="M6.929.515 21.07 14.657l-1.414 1.414-3.823-3.822L14 14.999v7h-4v-7L4 6H3V4h4.585l-2.07-2.07L6.929.515ZM21 4v2h-1l-1.915 2.872L13.213 4H21Z" /></g><defs><clipPath id="a"><path fill="#fff" d="M0 0h24v24H0z"/></clipPath></defs></svg>
